X: 28945
T: Nana's Walkabout
R: hornpipe
M: 4/4
K: Gmajor
(3DEF|GFGD ED (3CB,A,|G,B,DG BGAB|c2 cA ^c2 cA|dafd cB (3ABc|
Bdgd adbd|ed (3^cde dbgd|^cdef gABc|da (3gfe d3 ^d|
ec (3Bcd cGEC|dB (3 ABc BGDB,|A,^CEA ^ceag|gffe d2 dc|
(3Bcd gd adbd|ed (3^cde dBGB|cA (3^cde abag|(3fed (3cBA G4|

